X: 1
T: Braes of Atholl
R: strathspey
B: RSCDS 8-7
B: Walsh's Country Dances, 1731
Z: John Chambers <jc:trillian.mit.edu>
M: C
L: 1/16
K: G
d2 \
| "G"B4 A2G2 Bcd2 efg2 | B3A G2B2 "D7"AAA2 A2d \
| "G"B4 A3G  Bcd2 e2B2 | "D7"A2F2 D2B2 "G"GGG2 G2 :|
|: ef \
| "G"g2d2 B2g2 d2g2 d2B2 | "Em"gfed B2g2 "D7"f4 A2ef \
| "G"gfed B2g2 d2g2 d2B2 | "C"cBAG "D7"F2A2 "G"GGG2 G2 :|
|: c2 \
| "G"B2G2 B2G2 B2G2 Bcd2 | B2G2 Bcd2 g4 "D7"A4 \
| "G"B2G2 B2G2 B2G2 Bcd2 | D4 "D7"D2B2 "G"GGG2 G2 :|
|: B2 \
| "G"G2g2 gfed "Bm"B2g2 gfed | "G"B2g2 z2g2 "D7"f4 A2ef \
| "G"G2g2 gfed d2g2 d2B2 | "C"cBAG "D7"F2A2 "G"GGG2 G2 :|
